X:9
T: Bourre d'Aurore Sand
R:Bourre  2 temps
O: Berry
M: 2/4
L: 1/8
Q: 1/4=120
K: Am
V: 1
E|: A>B cd|e2>e2|ea ^ga|e2>e2|f>e dB|
c>B Ac|BA Bc|[1 B2>e2 :|[2 A2>e2 |:
e>d cd|e>d cd|e>d ef|e/f/e/d/ cd|
e>d cd|e>d ef|e/f/e/d/ cB|[1 AB cd:|[2 A4|]
V: 2 clef=treble
e|: A/-^G/A/B/ c/-B/c/d/|e/f/e/d/ ee|e/a/^g/a/ b/a/^g/a/|e/f/e/d/ ee|f/g/f/e/ d/f/e/d/|c/d/c/B/ A/c/B/A/|B/A/B/c/ A/^G/A/c/|[1 B/(c/B/c/) d/(e/d/e/):|[2 B/(c/B/c/) d/(e/d/e/)|:
e>d c/B/c/d/|e>d c/B/c/d/|e>d e/f/g/f/|ee c/B/c/d/|e>d c/B/c/d/|e>d e/f/g/f/|ee c/d/c/B/|[1 A/^G/A/B/ c/B/c/d/ :|[2 A4|]
%%footer $D   Galouvielle-MBe 2005 \nBourre  2 temps --
